images/check-faq.svg

<svg width="30" height="31" viewBox="0 0 30 31" fill="none" xmlns="http://www.w3.org/2000/svg">
<path fill-rule="evenodd" clip-rule="evenodd" d="M0 15.5C0 7.21573 6.59581 0.5 14.7321 0.5C22.8684 0.5 29.4643 7.21573 29.4643 15.5C29.4643 23.7842 22.8684 30.5 14.7321 30.5C6.59581 30.5 0 23.7842 0 15.5ZM23.3247 12.3692C23.8467 11.8355 23.8448 10.9721 23.3206 10.4407L22.3716 9.47854C21.8474 8.94715 20.9995 8.94901 20.4775 9.4827L12.7477 17.387L8.29986 12.9212C7.77319 12.3925 6.92522 12.3985 6.40587 12.9349L5.46552 13.9058C4.94617 14.442 4.95212 15.3054 5.47879 15.8342L11.8247 22.2055C12.3496 22.7326 13.194 22.7286 13.7142 22.1968L23.3247 12.3692Z" fill="#142245"/>
</svg>

<svg width="30" height="31" fill="none" xmlns="http://www.w3.org/2000/svg"><path fill-rule="evenodd" clip-rule="evenodd" d="M0 15.5C0 7.216 6.596.5 14.732.5s14.732 6.716 14.732 15c0 8.284-6.596 15-14.732 15S0 23.784 0 15.5zm23.325-3.13a1.381 1.381 0 00-.004-1.93l-.95-.961a1.323 1.323 0 00-1.893.004l-7.73 7.904L8.3 12.921a1.322 1.322 0 00-1.894.014l-.94.97c-.52.537-.514 1.4.013 1.93l6.346 6.37a1.322 1.322 0 001.89-.008l9.61-9.828z" fill="#142245"/></svg>
